X:1
T:Wonders (Sovereignty)
T:Wonders (Sovereignty)
T:John Newton (1802-1886)
T:Public Domain Courtesy of the Cyber Hymnal™
C:John Newton (1802-1886)
Z:Public Domain
Z:Courtesy of the Cyber Hymnal™
%%score ( 1 2 ) ( 3 4 )
L:1/8
M:4/4
K:D
V:1 treble 
V:2 treble 
V:3 bass 
V:4 bass 
V:1
|: [DA]4 [DA]2 [DB]2 | A2 G2 F2 B2 | [DA]4 [DF]4 | [CE]4 [DF]2 [CG]2 | [DA]4 [DB]2 [Ec]2 | %5
 [Fd]4 c>B A2 | [FA]4 [E^G]4 | [EA]8 | [FA]3 [EG] [DF]2 [EG]2 | [FA]3 [GB] [FA]2 [EG]2 | %10
 [DF]2 [EG]2 [FA]2 [GB]2 | [FA]6 [FA]2 | [GB]2 [FA]2 [EG]2 [DF]2 | [CE]3 [DF] [CE]2 [GB]2 | %14
 [GB]2 [FA]2 [FA][EG] [DF]2 | [DF]4 [CE]2 [DA]2 | B2 A2 [DB]2 [Ec]2 | d6 [EG]2 | %18
 [DF]4 [CE]4 D8"^Play 3 times" :| [Fd]2 [Fd]2 [Fd]2 | [Ec]4 [EA]2 | A4 [E^G]2 | [EA]4 [EA]2 | %23
 [FA]4 [DA]2 x | [DB]4 [GB]2 x | [Ec]4 [Ec]2 | [Fd]4 [CA]2 | [DA]4 [FA]2 | [DB]4 [Ge]2 | %29
 [Ec]4 [Ec]2 | [Fd]8 |] %31
V:2
|: x8 | D4 D4 | x8 | x8 | x8 | x4 E4 | x8 | x8 | x8 | x8 | x8 | x8 | x8 | x8 | x8 | x8 | D4 x4 | %17
 F3 E D2 x2 | x16 :| x6 | x6 | F2 E2 x2 | x6 | x7 | x7 | x6 | x6 | x6 | x6 | x6 | x8 |] %31
V:3
|: [D,F,]4 [D,F,]2 [D,G,]2 | F,2 B,2 A,2 G,2 | [D,F,]4 [D,A,]4 | [A,,A,]4 A,4 | [F,A,]4 [E,G,]4 | %5
 [D,A,]4 A,4 | [D,D]4 [E,B,]4 | [A,C]8 | [D,D]4 [D,A,]2 [D,A,]2 | [D,D]6 [D,A,]2 | [D,A,]4 [D,D]4 | %11
 [D,D]6 [D,D]2 | [D,D]4 [D,A,]4 | [A,,A,]6 [G,,B,]2 | [D,D]4 [D,A,]4 | [A,,A,]6 [F,A,]2 | %16
 G,2 [F,A,]2 [E,G,]4 | A,6 [G,B,]2 | A,4 A,2 G,2"^Play 3 times" [D,F,]8 :| [D,A,]2 A,2 A,2 | %20
 A,4 [C,A,]2 | D2 [E,C]2 [E,B,]2 | [A,,C]4 [A,,C]2 | D2 C2 x3 | B,2 B,2 x3 | A,^G,A,=G, A,2 | %26
 A,2 [F,A,][E,G,] x2 | [D,F,]4 D=C | [G,B,]4 [E,B,]2 | A,4 [A,,A,]2 | [D,A,]8 |] %31
V:4
|: x8 | D,4 D,4 | x8 | x4 D,2 E,2 | x8 | x4 A,,>B,, C,2 | x8 | x8 | x8 | x8 | x8 | x8 | x8 | x8 | %14
 x8 | x8 | x8 | D,3 E, F,2 x2 | x4 A,,4 x8 :| x2 D,E, F,G, | x6 | D,B,, x4 | x6 | D,C,D,E, x F,D, | %24
 G,F,E,F, x G,E, | x4 F,E, | D,F,A,G, x2 | x4 D,2 | x6 | x6 | x8 |] %31

